!!!COM: Beethoven
!!!OTL: 24 Variationen uber Venni Amore von V. Righini
!!!Variation: Variation 8 b
**function	**harm	**kern	**kern	**kern	**kern
*M2/4	*M2/4	*staff3	*staff4	*staff1	*staff2
*D:	*D:	*clefF4	*clefF4	*clefG2	*clefG2
*tb16	*	*k[f#c#]	*k[f#c#]	*k[f#c#]	*k[f#c#]
*	*	*M2/4	*M2/4	*M2/4	*M2/4
*	*	*D:	*D:	*D:	*D:
=	=	=-	=-	=-	=-
4D	4V	4r	4A	(8a	2r
.	.	.	.	4gg)	.
4D	4V2	([4A 4e	(4G	.	.
.	.	.	.	(16eeLL	.
.	.	.	.	16cc#JJ)	.
=	=	=145	=145	=145	=145
4D	4I6	2A]) 2d	4F#)	(8dd	2r
.	.	.	.	4aa)	.
4D	4I	.	4D	.	.
.	.	.	.	(16ff#LL	.
.	.	.	.	16ddJJ)	.
=	=	=146	=146	=146	=146
4D	4V	4c#	4A	(8a	2r
.	.	.	.	4gg)	.
4D	4V2	([4A 4e	(4G	.	.
.	.	.	.	(16eeLL	.
.	.	.	.	16cc#JJ)	.
=	=	=147	=147	=147	=147
4D	4I6	2A]) 2d	4F#)	(8dd	2r
.	.	.	.	4aa)	.
4D	4I	.	4D	.	.
.	.	.	.	(16ff#LL	.
.	.	.	.	16ddJJ)	.
=	=	=148	=148	=148	=148
4D	4V	2A 2e	(4A	(16cc#LL	2r
.	.	.	.	16dd	.
.	.	.	.	16ee	.
.	.	.	.	16ff#JJ	.
4D	4V2	.	4G	16ggLL	.
.	.	.	.	16aa	.
.	.	.	.	16bb	.
.	.	.	.	16ccc#JJ	.
=	=	=149	=149	=149	=149
4D	4I6	2A 2d	4F#	16dddLL	2r
.	.	.	.	16ccc#	.
.	.	.	.	16eee	.
.	.	.	.	16dddJJ	.
4D	4I	.	4D	16ccc#LL	.
.	.	.	.	16bb	.
.	.	.	.	16aa	.
.	.	.	.	16gg#JJ)	.
=	=	=150	=150	=150	=150
2D	2V7	4r	4A)	(16bbLL	4r
.	.	.	.	16aa	.
.	.	.	.	16gg	.
.	.	.	.	16ff#JJ	.
.	.	[4G	4AA	16eeLL	8r
.	.	.	.	16dd	.
.	.	.	.	16cc#	8cc#
.	.	.	.	16eeJJ)	.
=	=	=151	=151	=151	=151
2T	2I	(4G]	4.D	(4ee	(4cc#
.	.	8F#)	.	8dd)	8dd)
.	.	8r	8r	8r	8r
*	*	*	*clefG2	*	*
=	=	=152:|!	=152:|!	=152:|!	=152:|!
*-	*-	*-	*-	*-	*-
